!!!OTL: Der Essigkrug Wo ist der Mann aus diesem Haus,
!!!ARE: Europa, Mitteleuropa, Lothringen, Halsdorf ( Kr. Diedenhofen )
!!!SCT: D0045
!!!YEM: Copyright 1995, estate of Helmut Schaffrath.
**kern
*ICvox
*Ivox
*M2/4
*k[b-e-]
*B-:
{8f
=1
8b-
8b-
8f
8f
=2
8g
8g
8f
8r}
=3
{4b-
8g
8a
=4
4b-
8r}
{8f
=5
8d
8e-
8f
8ee-
=6
4dd
8b-}
{8dd
=7
8cc
8cc
8b-
8a
=8
4b-
8r}
{16f
16f
=9
4b-
8f
16f
16f
=10
4g
8f}
{8f
=11
4b-
8g
8a
=12
4b-
8r}
{8f
=13
8b-
8b-
8cc
8ee-
=14
4dd
8b-}
{8dd
=15
8cc
8cc
8b-
8a
=16
4b-
8r}
==
!!!AGN: Scherzlied auf einen Hausstand
!! Inzipit = Transposition zum Lied
!!!ONB: ESAC (Essen Associative Code) Database: DVA
!!!AMT: simple duple
!!!AIN: vox
!!!EED: Helmut Schaffrath
!!!EEV: 1.0
*-
